X:3
T:The Bank of Ireland
R:Reel
O:Ireland
B:O'Neill's 1186
S:O'Neill's 1186
Z:Transcription:Trish O'Neil, minor arr., chords:Mike Long
M:C|
L:1/8
K:D
(ed)|:\
"A"cAAB {d}cABG|"G"(EG)DG (EG)DB|{d}"A"cAAB (~cA)(BG)|[1 "D"Addc defd:|
[2 "D"Addc d2|]\
(de)|\
"D"f2fd "A"e2ec|"D"dfed "A"cAAg|"D"~f2fd "A"e2{f}ed|"A/C"eaag "D"ed dz|
"D"fgaf "A"efge|"D"dfed "A"~(cA)(AG)|"D"(Ad){e}dc "G"(de)fg|"A"(af)ge "D"(df)ed|]
